actions/16/object-visible.svg

<?xml version="1.0" encoding="UTF-8" standalone="no"?>
<!-- Created with Inkscape (http://www.inkscape.org/) -->

<svg
   xmlns:dc="http://purl.org/dc/elements/1.1/"
   xmlns:cc="http://creativecommons.org/ns#"
   xmlns:rdf="http://www.w3.org/1999/02/22-rdf-syntax-ns#"
   xmlns:svg="http://www.w3.org/2000/svg"
   xmlns="http://www.w3.org/2000/svg"
   xmlns:sodipodi="http://sodipodi.sourceforge.net/DTD/sodipodi-0.dtd"
   xmlns:inkscape="http://www.inkscape.org/namespaces/inkscape"
   width="16"
   height="16"
   id="svg13094"
   version="1.1"
   inkscape:version="0.48.4 r9939"
   sodipodi:docname="object-visible.svg">
  <sodipodi:namedview
     id="base"
     pagecolor="#ffffff"
     bordercolor="#666666"
     borderopacity="1.0"
     inkscape:pageopacity="0.0"
     inkscape:pageshadow="2"
     inkscape:zoom="64"
     inkscape:cx="7.6691886"
     inkscape:cy="7.6482399"
     inkscape:document-units="px"
     inkscape:current-layer="layer1"
     showgrid="true"
     inkscape:snap-bbox="true"
     inkscape:bbox-paths="true"
     inkscape:bbox-nodes="true"
     inkscape:snap-bbox-edge-midpoints="true"
     inkscape:snap-bbox-midpoints="true"
     inkscape:object-paths="true"
     inkscape:snap-intersection-paths="true"
     inkscape:object-nodes="true"
     inkscape:snap-smooth-nodes="true"
     inkscape:snap-midpoints="true"
     inkscape:snap-object-midpoints="true"
     inkscape:snap-center="true"
     showguides="false"
     inkscape:guide-bbox="true"
     inkscape:window-width="1920"
     inkscape:window-height="1016"
     inkscape:window-x="-5"
     inkscape:window-y="27"
     inkscape:window-maximized="1"
     inkscape:snap-global="true"
     fit-margin-top="0"
     fit-margin-left="0"
     fit-margin-right="0"
     fit-margin-bottom="0"
     showborder="true"
     inkscape:showpageshadow="false">
    <sodipodi:guide
       orientation="0,1"
       position="-20.000165,933.61275"
       id="guide4700" />
    <sodipodi:guide
       orientation="0,1"
       position="581.7187,331.89377"
       id="guide4702" />
    <sodipodi:guide
       orientation="1,0"
       position="581.71882,492.70384"
       id="guide4706" />
    <sodipodi:guide
       orientation="1,0"
       position="59.999836,933.61275"
       id="guide4708" />
    <sodipodi:guide
       orientation="0,1"
       position="-20.000165,853.61285"
       id="guide4710" />
    <sodipodi:guide
       orientation="0,1"
       position="541.7187,411.89369"
       id="guide4712" />
    <sodipodi:guide
       orientation="1,0"
       position="501.7187,411.89369"
       id="guide4714" />
    <inkscape:grid
       type="xygrid"
       id="grid3216"
       empspacing="5"
       visible="true"
       enabled="true"
       snapvisiblegridlinesonly="true"
       originx="-20.000111px"
       originy="-216.00016px" />
    <sodipodi:guide
       orientation="-0.70710664,0.70710692"
       position="8.9998902,-243.00016"
       id="guide3847" />
    <sodipodi:guide
       orientation="0.70710594,0.70710762"
       position="9.9998902,-242.00016"
       id="guide3849" />
    <sodipodi:guide
       orientation="-0.70710681,0.70710676"
       position="11.99989,-209.00016"
       id="guide3851" />
  </sodipodi:namedview>
  <defs
     id="defs13096" />
  <metadata
     id="metadata13099">
    <rdf:RDF>
      <cc:Work
         rdf:about="">
        <dc:format>image/svg+xml</dc:format>
        <dc:type
           rdf:resource="http://purl.org/dc/dcmitype/StillImage" />
        <dc:title />
      </cc:Work>
    </rdf:RDF>
  </metadata>
  <g
     transform="translate(9384.3076,-4846.1987)"
     id="layer1"
     inkscape:groupmode="layer"
     inkscape:label="Camada 1">
    <path
       style="font-size:medium;font-style:normal;font-variant:normal;font-weight:normal;font-stretch:normal;text-indent:0;text-align:start;text-decoration:none;line-height:normal;letter-spacing:normal;word-spacing:normal;text-transform:none;direction:ltr;block-progression:tb;writing-mode:lr-tb;text-anchor:start;baseline-shift:baseline;color:#000000;fill:#f1f3f5;fill-opacity:0.90288714000000003;fill-rule:nonzero;stroke:none;stroke-width:2;marker:none;visibility:visible;display:inline;overflow:visible;enable-background:accumulate;font-family:Sans;-inkscape-font-specification:Sans"
       d="M 8 1 C 6.2612 1 5.90085 1.286 5.09375 1.875 C 1.4673644 4.6396873 0.14069669 5.318201 0.03125 7.6875 C 0.10285625 7.3251844 0.30115 6.83605 0.71875 6.53125 L 5.96875 2.6875 C 6.64505 2.194 7.2687 2 8 2 C 8.731325 2 9.3550099 2.1939832 10.03125 2.6875 L 15.28125 6.53125 C 15.69885 6.8360125 15.897133 7.3252028 15.96875 7.6875 C 15.859302 5.3182455 14.532614 4.6397012 10.90625 1.875 C 10.09915 1.286 9.7388223 1 8 1 z M 8.40625 4.75 C 6.36565 4.75 4.75 6.36565 4.75 8.40625 C 4.75 10.44685 6.36565 12.09375 8.40625 12.09375 C 10.44685 12.09375 12.09375 10.44685 12.09375 8.40625 C 12.09375 6.36565 10.44685 4.75 8.40625 4.75 z M 8 5 C 9.6569 5 11 6.3432 11 8 C 11 9.6569 9.6569 11 8 11 C 6.3432 11 5 9.6569 5 8 C 5 6.3432 6.3432 5 8 5 z M 7 6 C 6.4461 6 6 6.446 6 7 C 6 7.554 6.4461 8 7 8 C 7.554 8 8 7.554 8 7 C 8 6.446 7.554 6 7 6 z M 0.03125 8.3125 C 0.14069669 10.681799 1.4673644 11.360313 5.09375 14.125 C 5.90085 14.714 6.2612 15 8 15 C 9.7388 15 10.09915 14.714 10.90625 14.125 C 14.532636 11.360313 15.859303 10.681799 15.96875 8.3125 C 15.897139 8.6748109 15.698925 9.164025 15.28125 9.46875 L 10.03125 13.3125 C 9.35505 13.806 8.7313 14 8 14 C 7.2687 14 6.64505 13.806 5.96875 13.3125 L 0.71875 9.46875 C 0.30115 9.164025 0.10285625 8.6748109 0.03125 8.3125 z "
       transform="translate(-9384.3076,4846.1987)"
       id="rect3014" />
    <path
       style="font-size:medium;font-style:normal;font-variant:normal;font-weight:normal;font-stretch:normal;text-indent:0;text-align:start;text-decoration:none;line-height:normal;letter-spacing:normal;word-spacing:normal;text-transform:none;direction:ltr;block-progression:tb;writing-mode:lr-tb;text-anchor:start;baseline-shift:baseline;color:#000000;fill:#27303a;fill-opacity:0.753280819999999968;stroke:none;stroke-width:1.19999993;marker:none;visibility:visible;display:inline;overflow:visible;enable-background:accumulate;font-family:Sans;-inkscape-font-specification:Sans"
       d="M 8 2 C 7.3317 2 6.6707 2.1643 6.125 2.5625 L 0.90625 6.375 C 0.35665 6.7761 0 7.3844 0 8 C 0 8.6156 0.35665 9.2239 0.90625 9.625 L 6.125 13.4375 C 7.2206 14.237 8.7794 14.237 9.875 13.4375 L 15.09375 9.625 C 15.64345 9.2239 16 8.6156 16 8 C 16 7.3844 15.64345 6.7761 15.09375 6.375 L 9.875 2.5625 C 9.3293 2.1643 8.6683 2 8 2 z M 8 3.1875 C 8.4371 3.1875 8.8861 3.3426 9.1875 3.5625 L 14.40625 7.375 C 14.70365 7.592 14.78125 7.7997 14.78125 8 C 14.78125 8.2003 14.70325 8.408 14.40625 8.625 L 9.1875 12.4375 C 8.589 12.8742 7.411 12.8742 6.8125 12.4375 L 1.59375 8.625 C 1.29645 8.408 1.21875 8.2003 1.21875 8 C 1.21875 7.7997 1.29675 7.592 1.59375 7.375 L 6.8125 3.5625 C 7.1139 3.3426 7.5629 3.1875 8 3.1875 z M 8 5 C 6.3431219 5 5 6.3431219 5 8 C 5 9.6568781 6.3431219 11 8 11 C 9.6568781 11 11 9.6568781 11 8 C 11 6.3431219 9.6568781 5 8 5 z M 7 6 C 7.553974 6 8 6.446026 8 7 C 8 7.553974 7.553974 8 7 8 C 6.446026 8 6 7.553974 6 7 C 6 6.446026 6.446026 6 7 6 z "
       transform="translate(-9384.3076,4846.1987)"
       id="rect3812" />
  </g>
</svg>

<?xml version="1.0" encoding="UTF-8"?>
<svg id="b" width="16" height="16" version="1.1" xmlns="http://www.w3.org/2000/svg" xmlns:cc="http://creativecommons.org/ns#" xmlns:dc="http://purl.org/dc/elements/1.1/" xmlns:rdf="http://www.w3.org/1999/02/22-rdf-syntax-ns#">
	<metadata id="e">
		<rdf:RDF>
			<cc:Work rdf:about="">
				<dc:format>image/svg+xml</dc:format>
				<dc:type rdf:resource="http://purl.org/dc/dcmitype/StillImage"/>
				<dc:title/>
			</cc:Work>
		</rdf:RDF>
	</metadata>
	<defs id="f">
		<style id="current-color-scheme" type="text/css">.ColorScheme-Text {color:#090d11;}.ColorScheme-Background{color:#ffffff;}</style>
	</defs>
	<path id="d" class="ColorScheme-Text" d="m8 2c-0.6683 0-1.3293 0.1643-1.875 0.5625l-5.2188 3.8125c-0.5496 0.4011-0.90625 1.0094-0.90625 1.625s0.35665 1.2239 0.90625 1.625l5.2188 3.8125c1.0956 0.7995 2.6544 0.7995 3.75 0l5.2188-3.8125c0.5497-0.4011 0.90625-1.0094 0.90625-1.625s-0.35655-1.2239-0.90625-1.625l-5.2188-3.8125c-0.5457-0.3982-1.2067-0.5625-1.875-0.5625zm0 1.1875c0.4371 0 0.8861 0.1551 1.1875 0.375l5.2188 3.8125c0.2974 0.217 0.375 0.4247 0.375 0.625s-0.078 0.408-0.375 0.625l-5.2188 3.8125c-0.5985 0.4367-1.7765 0.4367-2.375 0l-5.2188-3.8125c-0.2973-0.217-0.375-0.4247-0.375-0.625s0.078-0.408 0.375-0.625l5.2188-3.8125c0.3014-0.2199 0.7504-0.375 1.1875-0.375zm0 1.8125c-1.6569 0-3 1.3431-3 3s1.3431 3 3 3 3-1.3431 3-3-1.3431-3-3-3zm-1 1c0.55397 0 1 0.44603 1 1s-0.44603 1-1 1-1-0.44603-1-1 0.44603-1 1-1z" style="fill-opacity:.75;fill:currentColor"/>
	<path id="a" class="ColorScheme-Background" d="m8 1c-1.7388 0-2.0992 0.286-2.9062 0.875-3.6264 2.7647-4.9531 3.4432-5.0625 5.8125 0.071606-0.36232 0.2699-0.85145 0.6875-1.1562l5.25-3.8438c0.6763-0.4935 1.3-0.6875 2.0312-0.6875 0.73132 0 1.355 0.19398 2.0312 0.6875l5.25 3.8438c0.4176 0.30476 0.61588 0.79395 0.6875 1.1562-0.10945-2.3693-1.4361-3.0478-5.0625-5.8125-0.8071-0.589-1.1674-0.875-2.9062-0.875zm0.40625 3.75c-2.0406 0-3.6562 1.6156-3.6562 3.6562s1.6156 3.6875 3.6562 3.6875 3.6875-1.6469 3.6875-3.6875-1.6469-3.6562-3.6875-3.6562zm-0.40625 0.25c1.6569 0 3 1.3432 3 3 0 1.6569-1.3431 3-3 3-1.6568 0-3-1.3431-3-3 0-1.6568 1.3432-3 3-3zm-1 1c-0.5539 0-1 0.446-1 1s0.4461 1 1 1c0.554 0 1-0.446 1-1s-0.446-1-1-1zm-6.9688 2.3125c0.10945 2.3693 1.4361 3.0478 5.0625 5.8125 0.8071 0.589 1.1674 0.875 2.9062 0.875s2.0992-0.286 2.9062-0.875c3.6264-2.7647 4.9531-3.4432 5.0625-5.8125-0.07161 0.36231-0.26982 0.85152-0.6875 1.1562l-5.25 3.8438c-0.6762 0.4935-1.3 0.6875-2.0312 0.6875s-1.355-0.194-2.0312-0.6875l-5.25-3.8438c-0.4176-0.30472-0.61589-0.79394-0.6875-1.1562z" style="fill-opacity:.5;fill:currentColor"/>
</svg>
